X:138
T: Béres vagyok béres...
M: 2/4
L: 1/4
K: Bb
g/g/g/g/ | g f | 
g/g/f/e/ | d c | 
g e/e/ | f/e/d/c/ | 
d/c/=B/c/ | G G | 

